packages/styles/assets/img/shared/flags/4x3/ch.svg

<svg width="640" height="480" viewBox="0 0 640 480" fill="none" xmlns="http://www.w3.org/2000/svg">
<path fill="red" d="M80 0h480v480H80z"/><path fill="#fff" d="M275 90h90v105h105v90H365v105h-90V285H170v-90h105V90z"/>
</svg>

<svg width="640" height="480" viewBox="0 0 640 480" fill="none" xmlns="http://www.w3.org/2000/svg">
<rect width="640" height="480" fill="#FF0000"/>
<path d="M275 90H365V195H470V285H365V390H275V285H170V195H275V90Z" fill="white"/>
</svg>
